!!!!SEGMENT: pl-wnifc--6022-n--004_elsner-jozef--zal-pasterki-on-te-mi-gory-za-las-obrocil.krn
!!!cenid: 18xx:3921
!!!COM: Elsner, Józef
!!!COM-rismID: pe30000957
!!!CDT: 1769/06/01-1854/04/18
!!!CNT: Polish
!!!OTL: Żal Pasterki/On te mi góry za las obrócił
!!!PDT:
!!!AGN:
!!!YEC: Copyright 2022 Narodowy Instytut Fryderyka Chopina (https://polishscores.org)
!!!YEM: License CC-BY-4.0 (https://creativecommons.org/licenses/by/4.0)
!!!SMS-siglum: PL-Wnifc
!!!SMS-shelfmark: 6022/n
!!!SMS-shelfwork: 004 W
!!!SMS-variant:
!!!SMS-altvar:
!!!NIFC-rismSourceID: 1001134343
!!!NIFC-rismChildID: 1001134347
!!!NIFC-islandoraID: nifc:212599
!!!URL-pdf-islandora: https://repozytorium.nifc.pl/islandora/object/nifc%3A212599/datastream/PDF/view
!!!URL-scan: https://polish.musicsources.pl/pl/lokalizacje/galeria/druki-muzyczne/16849 @EN{Scan on Polish Music Sources Website} @PL{Skany w portalu Dziedzictwo Muzyki Polskiej w otwartym dostępie}
!!!IIIF:
!!!ONB-nifc: UWAGA: s. 10-11
!!!OMD: Andantino
!!!AIN: 1 clavi 1 vox
!!!key: E-
**kern	**kern	**dynam	**kern	**text
*part2	*part2	*	*part1	*
*staff3	*staff2	*	*staff1	*
*>[A,B,B,B,B]	*>[A,B,B,B,B]	*	*>[A,B,B]	*
*>A	*>A	*	*>A	*
*I"Klawikord	*I"Klawikord	*	*I"Voce	*
*I'clavicordo	*I'clavicordo	*	*I'V	*
*Iclavi	*Iclavi	*	*Ivox	*
*ICklav	*ICklav	*	*ICvox	*
*clefF4	*clefG2	*	*clefG2	*
*k[b-e-a-]	*k[b-e-a-]	*	*k[e-b-a-]	*
*E-:	*E-:	*	*E-:	*
*M6/8	*M6/8	*	*M6/8	*
=1	=1	=1	=1	=1
!	!	!LO:DY:t=dolce mf	!	!
(16BB-LL 16EE-/	(8ggL 8b-\	mf	2.r	.
16E-/	.	.	.	.
16BB- 16EE-/	8ff#X 8an\	.	.	.
16E-/	.	.	.	.
16BB- 16EE-/)	8ggJ 8b-\)	.	.	.
16E-/JJ	.	.	.	.
*tremolo	*	*	*	*
(16BB-LL 16EE-/	4ee- 4g\	.	.	.
16E-/	.	.	.	.
16BB- 16EE-/	.	.	.	.
16E-/	.	.	.	.
16BB- 16EE-/	8ee- 8g\	.	.	.
16E-/JJ)	.	.	.	.
=2	=2	=2	=2	=2
(16BB-LL 16EE-/	(8ggL 8b-\	.	2.r	.
16E-/	.	.	.	.
16BB- 16EE-/	8ff#X 8an\	.	.	.
16E-/	.	.	.	.
16BB- 16EE-/	8ggJ 8b-\)	.	.	.
16E-/JJ)	.	.	.	.
(16BB-LL 16EE-/	8.ee-L 8.g\	.	.	.
16E-/	.	.	.	.
16BB- 16EE-/	.	.	.	.
16E-/	(16b-\L	.	.	.
16BB- 16EE-/	16ee-\	.	.	.
16E-/JJ)	16gg\JJ)	.	.	.
=3	=3	=3	=3	=3
*	*^	*	*	*
(16BB-LL 16EE-/	(<8ee-/L	4.a- 4.f\	rf	2.r	.
16E-/	.	.	.	.	.
16BB- 16EE-/	16dd/L	.	.	.	.
16E-/	16cc/)	.	.	.	.
16BB- 16EE-/	16dd/	.	.	.	.
16E-/JJ)	16b-/JJ	.	.	.	.
(16BB-LL 16EE-/	8.ee-L 8.g\	4.ryy	.	.	.
16E-/	.	.	.	.	.
16BB- 16EE-/	.	.	.	.	.
16E-/	(16b-\L	.	.	.	.
16BB- 16EE-/	16ee-\	.	.	.	.
16E-/JJ)	16gg\JJ)	.	.	.	.
=4	=4	=4	=4	=4	=4
(16BB-LL 16EE-/	(<8ee-/L	4.a- 4.f\	rf	2.r	.
16E-/	.	.	.	.	.
16BB- 16EE-/	16dd/L	.	.	.	.
16E-/	16cc/)	.	.	.	.
16BB- 16EE-/	16dd/	.	.	.	.
16E-/JJ)	16b-/JJ	.	.	.	.
(16BB-LL 16EE-/	8.ee-L 8.g\	4.ryy	.	.	.
16E-/	.	.	.	.	.
16BB- 16EE-/	.	.	.	.	.
16E-/	(16b-\L	.	.	.	.
16BB- 16EE-/	16ee-\	.	.	.	.
16E-/JJ)	16gg\JJ)	.	.	.	.
*	*v	*v	*	*	*
=5	=5	=5	=5	=5
(16BB-LL 16EE-/	(8ee-L 8g\	.	2.r	.
16E-/	.	.	.	.
16BB- 16EE-/	8b-\	.	.	.
16E-/	.	.	.	.
16BB- 16EE-/	8gg\J)	.	.	.
16E-/JJ)	.	.	.	.
(16BB-LL 16EE-/	(8ee-L 8g\	.	.	.
16E-/	.	.	.	.
16BB- 16EE-/	8b-\	.	.	.
16E-/	.	.	.	.
16BB- 16EE-/	8gg\J)	.	.	.
16E-/JJ)	.	.	.	.
=6	=6	=6	=6	=6
(16BB-LL 16EE-/	[4.ee- 4.g\	.	2.r	.
16E-/	.	.	.	.
16BB- 16EE-/	.	.	.	.
16E-/	.	.	.	.
16BB- 16EE-/	.	.	.	.
16E-/JJ)	.	.	.	.
*Xtremolo	*	*	*	*
4BB- 4EE-/	4ee-] 4g\	.	.	.
8r	8r	.	.	.
!LO:TX:t=[segno]:problem:znak segno na kresce taktowej	!LO:TX:t=[segno]:problem:znak segno na kresce taktowej	!	!LO:TX:t=[segno]:problem:znak segno na kresce taktowej	!
=7||	=7||	=7||	=7||	=7||
*>B	*>B	*	*>B	*
!	!	!LO:DY:rj	!	!
(16BB-LL 16EE-/	(8gL 8B-/	p	8g/	On
16E-/	.	.	.	.
16BB- 16EE-/	8f#X 8An/	.	8f#X/	te
16E-/	.	.	.	.
16BB- 16EE-/	8gJ 8B-/)	.	8g/	mi
16E-/JJ)	.	.	.	.
.	.	.	8qfn/	.
*tremolo	*	*	*	*
(16BB-LL 16EE-/	4e- 4G/	.	4e-/	gó-
16E-/	.	.	.	.
16BB- 16EE-/	.	.	.	.
16E-/	.	.	.	.
16BB- 16EE-/	8e- 8G/	.	8e-/	-ry
16E-/JJ)	.	.	.	.
!!LO:LB:g=original
=8	=8	=8	=8	=8
*	*	*	*k[b-e-a-]	*
16BB-LL 16EE-/	(8gL 8B-/	.	8g/	za
16E-/	.	.	.	.
16BB- 16EE-/	8f#X 8An/	.	8f#X/	las
16E-/	.	.	.	.
16BB- 16EE-/	8gJ 8B-/)	.	8g/	o-
16E-/JJ	.	.	.	.
.	.	.	8qfn/	.
(16BB-LL 16EE-/	8.e-L 8.E-/	.	4e-/	-bru-
16E-/	.	.	.	.
16BB- 16EE-/	.	.	.	.
16E-/	(16B-/L	.	.	.
16BB- 16EE-/	16e-/	.	8e-/	-cił,
16E-/JJ)	16g/JJ)	.	.	.
=9	=9	=9	=9	=9
(16BB-LL 16EE-/	(8b-L 8g/	.	8b-/	i
16E-/	.	.	.	.
16BB- 16EE-/	8an 8f#X/	.	8an/	czar-
16E-/	.	.	.	.
16BB- 16EE-/	8b-J 8g/)	.	8b-/	-ne
16E-/JJ)	.	.	.	.
(16BB-LL 16EE-/	8b-L 8g/	.	8b-/	za-
16E-/	.	.	.	.
16BB- 16EE-/	8a-X 8fn/	.	8a-X/	-niosł
16E-/	.	.	.	.
16BB- 16EE-/	8gJ 8e-/	.	8g/	tam
16E-/JJ)	.	.	.	.
=10	=10	=10	=10	=10
(16BB-LL 16EE-/	4f 4d/	.	4f/	o-
16E-/	.	.	.	.
16BB- 16EE-/	.	.	.	.
16E-/	.	.	.	.
16BB- 16EE-/	(16a-LL 16f/	.	(16a-/LL	.
16E-/JJ)	16gJJ 16e-/)	.	16g/JJ)	.
(16BB-LL 16EE-/	4g 4e-/	.	4g/	-czy.
16E-/	.	.	.	.
16BB- 16EE-/	.	.	.	.
16E-/	.	.	.	.
16BB- 16EE-/	8ee- 8b- 8g\	.	8r	.
16E-/JJ)	.	.	.	.
=11	=11	=11	=11	=11
*	*^	*	*	*
(16BB-LL 16EE-/	(<8ee-/L	4.a- 4.f\	.	8ee-\	iak-
16E-/	.	.	.	.	.
16BB- 16EE-/	16dd/L	.	.	(16dd\LL	-by
16E-/	16cc/)	.	.	16cc\JJ)	.
16BB- 16EE-/	16dd/	.	.	(16dd\LL	rad
16E-/JJ)	16b-/JJ	.	.	16b-\JJ)	.
(16BB-LL 16EE-/	8.ee-L 8.g\	4.ryy	.	4ee-\	te-
16E-/	.	.	.	.	.
16BB- 16EE-/	.	.	.	.	.
16E-/	(16b-\L	.	.	.	.
16BB- 16EE-/	16ee-\	.	.	8b-\	-mu
16E-/JJ)	16gg\JJ)	.	.	.	.
=12	=12	=12	=12	=12	=12
(16BB-LL 16EE-/	8ee-/L	4.a- 4.f\	.	8ee-\	że
16E-/	.	.	.	.	.
16BB- 16EE-/	16dd/L	.	.	16dd\LL	mnie
16E-/	16cc/	.	.	16cc\JJ	.
16BB- 16EE-/	16dd/	.	.	16dd\LL	po-
16E-/JJ)	16b-/JJ	.	.	16b-\JJ	.
(16BB-LL 16EE-/	4.ee-/	8.g\L	.	(8.ee-\L	-rzu-
16E-/	.	.	.	.	.
16BB- 16EE-/	.	.	.	.	.
16E-/	.	(>16b-\L	.	16b-\Jk)	.
16BB- 16EE-/	.	16ee-\	.	16ee-\LL	-cił;
16E-/JJ)	.	16gg\JJ)	.	16gg\JJ	.
*Xtremolo	*	*	*	*	*
*	*v	*v	*	*	*
=13	=13	=13	=13	=13
16CC/LL	8ee-L 8g\	.	8ee-\	krok
16C/	.	.	.	.
16DD/	8dd 8f\	.	8dd\	ie-
16D/	.	.	.	.
16EE-/	(8ccJ 8e-\	.	8cc\	-go
16E-/JJ	.	.	.	.
*tremolo	*	*	*	*
!LO:TX:t=P:problem=mixed beam	!	!	!	!
16FF/LL	8b-L 8d\)	.	8b-\	zdał
16F\	.	.	.	.
16FF/	8cc 8e-\	.	8cc\	się
16F\	.	.	.	.
16FF/	8anJ 8c\	.	8an\	o-
16F\JJ	.	.	.	.
=14	=14	=14	=14	=14
(16FFLL 16BBB-/	(4.cc 4.an 4.e-\	.	(4.cc\	-cho-
16BB-/	.	.	.	.
16FF 16BBB-/	.	.	.	.
16BB-/	.	.	.	.
16FF 16BBB-/	.	.	.	.
16BB-/JJ)	.	.	.	.
(16FFLL 16BBB-/	8.b-L 8.d\)	.	4b-\)	-czy.
16BB-/	.	.	.	.
16FF 16BBB-/	.	.	.	.
16BB-/	(16f\L	.	.	.
16FF 16BBB-/	16b-\	.	8r	.
16BB-/JJ)	16dd\JJ)	.	.	.
!!LO:LB:g=original
=15	=15	=15	=15	=15
*	*^	*	*	*
.	8qdd/	.	.	.	.
(16FFLL 16BBB-/	(<8cc/L	4.an 4.e-\	rf	2.r	.
16BB-/	.	.	.	.	.
16FF 16BBB-/	16cc/L	.	.	.	.
16BB-/	16b-/)	.	.	.	.
16FF 16BBB-/	16cc/	.	.	.	.
16BB-/JJ)	16dd/JJ	.	.	.	.
!	!LO:N:vis=8	!	!	!	!
(16FFLL 16BBB-/	8.b-L 8.d\	4ryy	.	.	.
16BB-/	.	.	.	.	.
16FF 16BBB-/	.	.	.	.	.
16BB-/	16f\L	.	.	.	.
16FF 16BBB-/	16b-\	8ryy	.	.	.
16BB-/JJ)	16dd\JJ	.	.	.	.
=16	=16	=16	=16	=16	=16
.	8qdd/	.	.	.	.
(16FFLL 16BBB-/	8cc/L	4.an 4.e-\	rf	2.r	.
16BB-/	.	.	.	.	.
16FF 16BBB-/	16cc/L	.	.	.	.
16BB-/	16b-/	.	.	.	.
16FF 16BBB-/	16cc/	.	.	.	.
16BB-/JJ)	16dd/JJ	.	.	.	.
*Xtremolo	*	*	*	*	*
4AA- 4BBB-/	4b-/	4d\	.	.	.
!LO:TX:t=P:problem=brak pauzy 8r	!	!	!	!	!
8ryy	8r	8ryy	.	.	.
=17	=17	=17	=17	=17	=17
*tremolo	*	*	*	*	*
!	!	!LO:TX:t=P:problem=diminuendolike accent	!	!	!
(16CC/LL	8dd-X/L	(4.g 4.en^\	.	8dd-X\	U-
16C/	.	.	.	.	.
.	.	.	.	32qqee-/LLL	.
.	.	.	.	32qqdd-/JJJ	.
16CC/	8cc/	.	.	8cc\	-parł
16C/	.	.	.	.	.
16CC/	8b-/J	.	.	8b-\	się.
16C/JJ)	.	.	.	.	.
.	.	.	.	8qqb-/	.
!LO:TX:t=P:problem=mixed beam	!	!	!	!	!
16FF/LL	4a-X/	4f\)	.	4a-X\	po-
16F\	.	.	.	.	.
16FF/	.	.	.	.	.
16F\	.	.	.	.	.
16FF/	8a-/	8f\	.	8a-\	-szedł:
16F\JJ	.	.	.	.	.
=18	=18	=18	=18	=18	=18
!	!	!LO:TX:t=P:problem=diminuendolike accent	!	!	!
(16BBB-/LL	(<8cc-X/L	4.f 4.d^\	.	8cc-X\	a
16BB-/	.	.	.	.	.
.	.	.	.	32qqdd-X/LLL	.
.	.	.	.	32qqcc-/JJJ	.
16BBB-/	8b-/	.	.	8b-\	iak-
16BB-/	.	.	.	.	.
16BBB-/	8a-/J)	.	.	8a-/	-by
16BB-/JJ)	.	.	.	.	.
.	.	.	.	8qqa-/	.
!LO:TX:t=P:problem=mixed beam	!	!	!	!	!
(16EE-/LL	4g 4e-/	4.ryy	.	4g/	ska-
16E-\	.	.	.	.	.
16EE-/	.	.	.	.	.
16E-\	.	.	.	.	.
16EE-/	8g 8e-/	.	.	8g/	-ła,
16E-JJ)	.	.	.	.	.
*	*v	*v	*	*	*
=19	=19	=19	=19	=19
!LO:TX:t=P:problem=mixed beam	!LO:TX:b:i:t=mancando	!	!	!
(16CC-X/LL	4an 4e-/	.	8ee-\	ser-
16C-y\	.	.	.	.
16CC-/	.	.	8ee-\	-ce
16C-y\	.	.	.	.
16CC-/	8r	.	8ee-\	mu
16C-y\JJ)	.	<	.	.
.	.	.	16qqee-/LL	.
.	.	.	16qqff/JJ	.
!LO:TX:t=P:problem=mixed beam	!	!	!	!
(16CC-/LL	4a 4e-/	.	8gg-X\	by-
16C-y\	.	.	.	.
16CC-/	.	[	8an/	-ło
16C-y\	.	.	.	.
16CC-/	8r	.	8a/	w_tey
16C-y\JJ)	.	.	.	.
*Xtremolo	*	*	*	*
!!LO:PB:g=original
=20	=20	=20	=20	=20
8CC-X;/	8an 8e-;/	fp	(8.an;/L	do-
8r	8r	.	.	.
.	.	.	16b-/L	.
8r	8r	.	16cc/	.
.	.	.	16b-/JJ)	.
8BB- 8BBB-;/	8b- 8d;/	p	8b-;/L	-bie
8r	8r	.	8an/	.
8r	8r	.	8a-X/J	.
=21	=21	=21	=21	=21
*tremolo	*	*	*	*
(16BB-LL 16EE-/	(8gL 8B-/	.	8g/	ni
16E-/	.	.	.	.
16BB- 16EE-/	8f#X 8An/	.	8f#X/	się
16E-/	.	.	.	.
16BB- 16EE-/	8gJ 8B-/)	.	8g/	o-
16E-/JJ)	.	.	.	.
(16BB-LL 16EE-/	(8.e-L 8.G/	.	4e-/	-bey-
16E-/	.	.	.	.
16BB- 16EE-/	.	.	.	.
16E-/	16B-/L	.	.	.
16BB- 16EE-/	16e-/	.	8e-/	-rzał,
16E-/JJ)	16g/JJ)	.	.	.
=22	=22	=22	=22	=22
16BB-LL 16EE-/	(8b-L 8g/	.	8b-/	gdym-
16E-/	.	.	.	.
16BB- 16EE-/	8an 8f#X/	.	8an/	-go
16E-/	.	.	.	.
16BB- 16EE-/	8b-J 8g/)	.	8b-/	wo-
16E-/JJ	.	.	.	.
*Xtremolo	*	*	*	*
.	.	.	8qa-X/	.
16BB-LL 16EE-/	4g 4e-/	.	8g/	-ła-
16E-/	.	.	.	.
16BB- 16EE-/	.	.	8g/	-ła,
16E-/JJ	.	.	.	.
16GGG/LL	(8dd 8b- 8e-\	.	8ee-\	i
16GG/JJ	.	.	.	.
=23	=23	=23	=23	=23
(16AAA-/LL	8ee-L 8cc 8a- 8e-\)	.	8ee-\L	śla-
16AA-/	.	.	.	.
16AAA-/	8cc 8a-\	.	8cc\J	.
16AA-/	.	.	.	.
16AAA-/	8a-J 8f\	.	8a-/	-dy
16AA-/JJ)	.	.	.	.
*tremolo	*	*	*	*
(16BBB-/LL	8gL 8e-\	.	8g/	za-
16BB-/	.	.	.	.
16BBB-/	8a- 8f\	.	8a-/	-tarł
16BB-/	.	.	.	.
16BBB-/	8fJ 8d\	.	8f/	po
16BB-/JJ)	.	.	.	.
=24	=24	=24	=24	=24
16BB-LL 16EE-/	(4f 4d/	.	4f/	so-
16E-/	.	.	.	.
16BB- 16EE-/	.	.	.	.
16E-/	.	.	.	.
16BB- 16EE-/	16a-LL 16f/	.	(16a-/LL	.
16E-/JJ	16gJJ 16e-/)	.	16g/JJ)	.
*Xtremolo	*	*	*	*
(16BB-LL 16EE-/	4g 4e-/	.	4g/	-bie.
16E-/	.	.	.	.
16BB- 16EE-/	.	.	.	.
16E-/JJ)	.	.	.	.
16GGG/LL	[8ee- 8b- 8e-\	.	8ee-\	i
16GG/JJ	.	.	.	.
=25	=25	=25	=25	=25
*tremolo	*	*	*	*
(16AAA-/LL	8ee-]L 8cc 8a- 8e-\	.	8ee-\L	śla-
16AA-/	.	.	.	.
16AAA-/	8cc 8a-\	.	16dd\L	.
16AA-/	.	.	16cc\JJ	.
16AAA-/	8a-J 8f\	.	16b-/LL	-dy
16AA-/JJ)	.	.	16a-/JJ	.
(16BBB-/LL	8gL 8e-/	.	8g/	za-
16BB-/	.	.	.	.
16BBB-/	(8a- 8f/	.	16a-/LL	-tarł
16BB-/	.	.	16g/JJ	.
!	!	!	!LO:TUP:b:problem=klamra łukowa	!
16BBB-/	8fJ 8d/)	.	24a-/LL	po
.	.	.	24g/	.
16BB-/JJ)	.	.	.	.
.	.	.	24f/JJ	.
!!LO:LB:g=original
=26	=26	=26	=26	=26
(16BB-LL 16EE-/	4.f 4.d 4.A-/	.	(>4.f/	so-
16E-/	.	.	.	.
16BB- 16EE-/	.	.	.	.
16E-/	.	.	.	.
16BB- 16EE-/	.	.	.	.
16E-/JJ)	.	.	.	.
!	!LO:TX:t=P:problem=mixed beam	!	!	!
(16BB-LL 16EE-/	8.e-L 8.G/	.	4e-/)	-bie.
16E-/	.	.	.	.
16BB- 16EE-/	.	.	.	.
16E-/	(16b-\L	.	.	.
16BB- 16EE-/	16ee-\	.	8r	.
16E-/JJ)	16gg\JJ)	.	.	.
=27	=27	=27	=27	=27
*	*^	*	*	*
.	8qgg/	.	.	.	.
(16BB-LL 16EE-/	8ff/L	4.dd 4.a-\	rf	2.r	.
16E-/	.	.	.	.	.
16BB- 16EE-/	16ff/L	.	.	.	.
16E-/	16ee-/	.	.	.	.
16BB- 16EE-/	16ff/	.	.	.	.
16E-/JJ)	16gg/JJ	.	.	.	.
(16BB-LL 16EE-/	8.ee-L 8.g\	4.ryy	.	.	.
16E-/	.	.	.	.	.
16BB- 16EE-/	.	.	.	.	.
16E-/	(16b-\L	.	.	.	.
16BB- 16EE-/	16ee-\	.	.	.	.
16E-/JJ)	16gg\JJ)	.	.	.	.
=28	=28	=28	=28	=28	=28
.	8qgg/	.	.	.	.
!	!	!LO:N:n=2:vis=2.	!	!	!
(16BB-LL 16EE-/	8ff/L	4.dd 4.a-\	rf	2.r	.
16E-/	.	.	.	.	.
16BB- 16EE-/	16ff/L	.	.	.	.
16E-/	16ee-/	.	.	.	.
16BB- 16EE-/	16ff/	.	.	.	.
16E-/JJ)	16gg/JJ	.	.	.	.
(16BB-LL 16EE-/	4.ee-/	8.g\L	.	.	.
16E-/	.	.	.	.	.
16BB- 16EE-/	.	.	.	.	.
16E-/	.	(>16b-\L	.	.	.
16BB- 16EE-/	.	16ee-\	.	.	.
16E-/JJ)	.	16gg\JJ)	.	.	.
*	*v	*v	*	*	*
=29	=29	=29	=29	=29
(16BB-LL 16EE-/	(8ee-L 8g\	.	2.r	.
16E-/	.	.	.	.
16BB- 16EE-/	8b-\)	.	.	.
16E-/	.	.	.	.
16BB- 16EE-/	8gg\J	.	.	.
16E-/JJ)	.	.	.	.
(16BB-LL 16EE-/	(8ee-L 8g\	.	.	.
16E-/	.	.	.	.
16BB- 16EE-/	8b-\)	.	.	.
16E-/	.	.	.	.
16BB- 16EE-/	8gg\J	.	.	.
16E-/JJ)	.	.	.	.
=30	=30	=30	=30	=30
(16BB-LL 16EE-/	[4.ee- 4.g\	.	2.r	.
16E-/	.	.	.	.
16BB- 16EE-/	.	.	.	.
16E-/	.	.	.	.
16BB- 16EE-/	.	.	.	.
16E-/JJ)	.	.	.	.
*Xtremolo	*	*	*	*
4BB- 4EE-/	4ee-] 4g\	.	.	.
!LO:TX:t=P:problem:brak pauzy 8r	!LO:TX:t=P:problem:brak pauzy 8r	!	!	!
8ryy	8ryy	.	.	.
!	!LO:TX:b:i:t=dal Segno	!	!	!
!LO:TX:t=[segno]:problem:znak segno na kresce taktowej	!LO:TX:t=[segno]:problem:znak segno na kresce taktowej	!	!LO:TX:t=[segno]:problem:znak segno na kresce taktowej	!
==	==	==	==	==
*-	*-	*-	*-	*-
!!!system-decoration: vox{klav}
!!!RDF**kern: > = above
!!!RDF**kern: < = below
!!!ENC: Marta Opryszak
!!!END: 2022-07-26
!!!ENC: Andrzej Kubiczek
!!!END: 2022-08-24
